X:1
T:The Jacket So Blue
M:3/4
L:1/4
K:F
 G| G C C| G G G| E C D| C2 G|G/2-c/2 c c/2B/2|G/2-A/2 B c/2c/2| G E F|\
 G2 G/2G/2|G/2-c/2 cc/2-B/2|G/2-A/2 B c| G/2G/2 E F| G2 G/2G/2| C C3/2 G/2|\
 G G G| E C D| C2||
